!!!COM: Chopin, Frederic
!!!CDT: 1810///-1849///
!!!OTL: Prelude in F-sharp Major, Op. 28, No. 13
!!!OPS: Op. 28
!!!ONM: No. 13
!!!OMD: Lento con grand' espressione
!!!ODT: 1836///-1839///
!!!PDT: 1839///
**kern	**kern	**dynam
*staff2	*staff1	*staff1/2
*Ipiano	*Ipiano	*Ipiano
*clefF4	*clefG2	*clefG2
*k[f#c#g#d#a#e#]	*k[f#c#g#d#a#e#]	*k[f#c#g#d#a#e#]
*F#:	*F#:	*F#:
*M6/4	*M6/4	*M6/4
*MM60	*MM60	*MM60
=1-	=1-	=1-
8FF#\L	2.c#/ 2.f#/ (2.a#/	p
8E#\	.	.
8G#\	.	.
8F#\	.	.
8A#\	.	.
8C#\J	.	.
8FF#\L	2.c#/ 2.f#/ 2.a#/	.
8E#\	.	.
8G#\	.	.
8F#\	.	.
8A#\	.	.
8C#\J	.	.
=2	=2	=2
*	*^	*
8FF#\L	2.f#/ 2.a#/	2.c#	.
8E#\	.	.	.
8G#\	.	.	.
8F#\	.	.	.
8A#\	.	.	.
8C#\J	.	.	.
8CC#\L	2b/	2.e#\	.
8F##\	.	.	.
8A#\	.	.	.
8G#\	.	.	.
8B\	4g#/)	.	.
&(8C#\J&)	.	.	.
*	*v	*v	*
=3	=3	=3
8FF#\L	2.c#/ 2.f#/ (2.a#/	.
8E#\	.	.
8G#\	.	.
8F#\	.	.
8A#\	.	.
8C#\J	.	.
*	*^	*
8FF#\L	2f#/ 2a#/	2.c#\	.
8E#\	.	.	.
8G#\	.	.	.
8F#\	.	.	.
8A#\	4f#/ 4a#/	.	.
8C#\J	.	.	.
=4	=4	=4	=4
8FF#\L	10.f#/ 10.a#/	2.c#\	.
8E#\	.	.	.
.	10.g#/ 10.b/	.	.
8G#\	.	.	.
.	10.f#/ 10.a#/	.	.
8F#\	.	.	.
.	10.e#/ 10.g#/	.	.
8A#\	.	.	.
.	10.f#/ 10.a#/	.	.
8C#\J	.	.	.
8CC#\L	4a#/ 4cc#/	2e#\	.
8F##\	.	.	.
8A#\	4g#/ 4b/)	.	.
8G#\	.	.	.
*	*v	*v	*
8B\	8r	.
&(8C#\J&)	8c#/ (8g#/	.
=5	=5	=5
8FF#\L	2.c#/ 2.f#/ 2.a#/	<
8E#\	.	.
8G#\	.	.
8F#\	.	.
8A#\	.	.
8C#\J	.	.
8FF#\L	2.c#/ 2.a#/ 2.cc#/	.
8E#\	.	.
8G#\	.	.
8F#\	.	.
8A#\	.	.
8C#\J	.	.
=6	=6	=6
8DD#\L	2.f#\ 2.a#\ 2.ff#\	.
8G##\	.	.
8B#\	.	.
8A#\	.	.
8d#\	.	.
8F#\J	.	.
8GG#\L	2.g#\ 2.cc#\ 2.ee#\	>
8F##\	.	.
8A#\	.	.
8G#\	.	.
8c#\	.	.
8E#\J	.	.
=7	=7	=7
8GG#\L	2.f#\ 2.g#\ 2.dd#\	>
8F##\	.	.
8A#\	.	.
8G#\	.	.
8B#\	.	.
8D#\J	.	.
8C#\L	2e#/ 2g#/ 2cc#/)	.
8F##\	.	.
8A#\	.	.
8G#\	.	.
8c#\	4r	.
8E#\J	.	.
=8	=8	=8
8G#\L	1.r	.
8F#\	.	.
8B\	.	.
8D#\	.	.
8F#\	.	.
8E#\J	.	.
8A#\L	.	.
8C#\	.	.
8A#\	.	.
8BB\	.	.
8A#\	.	.
&(8G#\J&)	.	.
=9	=9	=9
.	A#q/	.
8FF#\L	2.c#/ 2.f#/ (2.a#/	p
8E#\	.	.
8G#\	.	.
8F#\	.	.
8A#\	.	.
8C#\J	.	.
8FF#\L	2.c#/ 2.f#/ 2.a#/	.
8E#\	.	.
8G#\	.	.
8F#\	.	.
8A#\	.	.
8C#\J	.	.
=10	=10	=10
*	*^	*
8FF#\L	2.f#/ 2.a#/	2.c#	.
8E#\	.	.	.
8G#\	.	.	.
8F#\	.	.	.
8A#\	.	.	.
8C#\J	.	.	.
8CC#\L	[2b/	2.e#\	.
8F##\	.	.	.
8A#\	.	.	.
8G#\	.	.	.
8B\	8.b/L]	.	.
8C#\J	.	.	.
.	16g#/Jk)	.	.
*	*v	*v	*
=11	=11	=11
8FF#\L	2.c#/ 2.f#/ (2.a#/	.
8E#\	.	.
8G#\	.	.
8F#\	.	.
8A#\	.	.
8C#\J	.	.
8FF#\L	[4c#/ [4f#/ [4a#/	<
8E#\	.	.
8G#\	12c#/] 12f#/] 12a#/L]	.
.	12c#/ 12f#/ 12a#/	.
8F#\	.	.
.	12c#/ 12f#/ 12a#/J	.
8A#\	12c#/ 12f#/ 12a#/L	.
.	12c#/ 12f#/ 12a#/	.
8C#\J	.	.
.	12c#/ 12f#/ 12a#/J	.
=12	=12	=12
*	*^	*
8FF#\L	4f#/ 4a#/	2.c#\	.
8E#\	.	.	.
8G#\	8g#/ 8b/L	.	.
8F#\	8f#/ 8a#/	.	.
8A#\	8e#/ 8g#/	.	.
8C#\J	8f#/ 8a#/J	.	>
8CC#\L	4a#/ 4cc#/	2e#\	.
8F##\	.	.	.
8A#\	4g#/ 4b/)	.	.
8G#\	.	.	.
*	*v	*v	*
8B\	8r	.
8C#\J	[8c#/ (8g#/	.
=13	=13	=13
8FF#\L	2.c#/] 2.en/ 2.a#/	.
8E#\	.	.
8G#\	.	.
8F#\	.	.
8A#\	.	.
8C#\J	.	.
*	*^	*
8FF#\L	[2a#/	2.e\	<
8E#\	.	.	.
8G#\	.	.	.
8F#\	.	.	.
8A#\	8.a#/L]	.	.
8C#\J	.	.	.
.	16b/Jk	.	.
*	*v	*v	*
=14	=14	=14
8FF#\L	2.en/ 2.a#/ 2.cc#/	.
8E#\	.	.
8G#\	.	.
8F#\	.	.
8A#\	.	.
8C#\J	.	.
*	*^	*
8FF#\L	[2dd#/	2.e\ 2.a#\	>
8E#\	.	.	.
8G#\	.	.	.
8F#\	.	.	.
8A#\	8.dd#/L]	.	.
8C#\J	.	.	.
.	16cc#/Jk	.	.
*	*v	*v	*
=15	=15	=15
8BB\L	2.en/ 2.a#/ 2.cc#/	.
8F#\	.	.
8G#\	.	.
8F##\	.	.
8A#\	.	.
8C#\J	.	.
8BB\L	2.d#/ 2.g#/ 2.b/)	.
8F##\	.	.
8A#\	.	.
8G#\	.	.
8B\	.	.
8D#\J	.	.
=16	=16	=16
8DD#/L	2.c#/ 2.f##/ (2.a#/	>
8C##/	.	.
8En/	.	.
8D#/	.	.
8F##/	.	.
8AA#/J	.	.
*	*^	*
8GG#\L	[2b/	2.B\ 2.g#\	.
8C##\	.	.	.
8E\	.	.	.
8D#\	.	.	.
8G#\	8.b/L]	.	.
8GG#\J	.	.	.
.	16d#/Jk	.	.
=17	=17	=17	=17
8CC#/L	2.B/ 2.g#/	1.e#	p
8BB#/	.	.	.
8D#/	.	.	.
8C#/	.	.	.
8E#/	.	.	.
8GG#/J	.	.	.
8CC#/L	2.c#/ 2.a#/	.	.
8BB#/	.	.	.
8D#/	.	.	.
8C#/	.	.	.
8E#/	.	.	.
8GG#/J	.	.	.
*	*v	*v	*
=18	=18	=18
8FF#/L	2A#/ 2f#/)	.
8BB#/	.	.
8D#/	.	.
8C#/	.	.
8F#/	4r	.
8FF#/J	.	.
8BBB\L	2.d#/ (2.b/	>
8E#\	.	.
8G#\	.	.
8F#\	.	.
8Bn\	.	.
8BBn\J	.	.
=19	=19	=19
*	*^	*
8CC#/L	2.B/ 2.g#/	2.e#	p
8BB#/	.	.	.
8D#/	.	.	.
8C#/	.	.	.
8E#/	.	.	.
8GG#/J	.	.	.
8CC#/L	2.a#/	2c#\	.
8BB#/	.	.	.
8D#/	.	.	.
8C#/	.	.	.
8E#/	.	4B\	.
8GG#/J	.	.	.
*	*v	*v	*
=20	=20	=20
8GG#/L	[2.A#/ [2.f#/	pp
8BB#/	.	.
8D#/	.	.
8C#/	.	.
8F#/	.	.
8CC#/J	.	.
8FF#/L	4A#/] 4f#/])	.
8BB#/	.	.
8D#/	4r	.
8C#/	.	.
8F#/	4r	.
(8EE#/J	.	.
=21	=21	=21
*	*^	*
8DD#\L)	2.ff#/	8r	p
8D#\ 8A#\	.	8f#\L	.
8D#\ 8A#\	.	8f#\	.
8D#\ 8A#\	.	8f#\	.
8D#\ 8d#\	.	8f#\	.
8D#\ 8A#\J	.	8f#\J	.
8D#\ 8A#\L	2a#/	8f#\L	.
8D#\ 8c#\	.	8f#\	.
8D#\ 8B#\	.	8f#\	.
8D#\ 8A#\	.	8f#\	.
8GG#\ 8A#\	4b#/	8f#\	.
8GG#\ 8G#\J	.	8f#\J	.
=22	=22	=22	=22
8CC#\L	[2b#/	8e#\L	.
8GG#\ 8G#\	.	8e#\	.
8C#\ 8G#\	.	8e#\	.
8D#\ 8G#\	.	8e#\	.
8C#\ 8G#\	16b#/LL]	8e#\	.
.	16cc#/	.	.
8GG#\ 8G#\J	16ee#/	8e#\J	.
.	16dd#/JJ	.	.
8C#\ 8G#\L	&(2.cc#/&)	8e#\L	.
8D#\ 8G#\	.	8e#\	.
8C#\ 8G#\	.	8e#\	.
8F#\ 8G#\	.	8e#\	.
8E#\ 8G#\	.	8e#\	.
8GG#\ 8G#\J	.	8e#\J	.
=23	=23	=23	=23
8CC#\L	(2.een/	8r	.
8C#\ 8G#\	.	8en\L	.
8C#\ 8G#\	.	8e\	.
8C#\ 8G#\	.	8e\	.
8C#\ 8c#\	.	8e\	.
8C#\ 8G#\J	.	8e\J	.
8C#\ 8G#\L	2g#/	8e\L	.
8C#\ 8B\	.	8e\	.
8C#\ 8A#\	.	8e\	.
8C#\ 8G#\	.	8e\	.
8FF#\ 8G#\	4a#/	8e\	.
8FF#\ 8F#\J	.	8e\J	.
=24	=24	=24	=24
8BBB/L	[2a#/	8r	.
8FF#/ 8F#/	.	8d#\L	.
8BB/ 8F#/	.	8d#\	.
8C#/ 8F#/	.	8d#\	.
8BB/ 8F#/	16a#/LL]	8d#\	.
.	16b/	.	.
8FF#/ 8F#/J	16dd#/	8d#\J	.
.	16cc#/JJ	.	.
8BB/ 8F#/L	2b/	8d#\L	.
8C#/ 8F#/	.	8d#\	.
8BB/ 8F#/	.	8d#\	.
8FF#/ 8F#/	.	8d#\	.
8BB/ 8F#/	4a#/	8d#\	.
8C#/ 8F#/J	.	8c#\J	.
=25	=25	=25	=25
8D#\ 8F#\L	4a#^/	8B\L	.
8D#\ 8F#\	.	8B\	.
8D#\ 8F#\	[4g#/)	8B\	.
8D#\ 8F#\	.	8B\	.
8C#\ 8F#\	(16g#/LL]	8c#\	.
.	16a#/	.	.
8C#\ 8F#\J	16cc#/	8c#\J	.
.	16b/JJ	.	.
8BB\ 8F#\L	4a#^/	8d#\L	.
8BB\ 8F#\	.	8d#\	.
8BB\ 8F#\	[4g#/)	8d#\	.
8BB\ 8F#\	.	8d#\	.
8C#\ 8F#\	(16g#/LL]	8c#\	.
.	16a#/	.	.
8C#\ 8F#\J	16cc#/	8c#\J	.
.	16b/JJ	.	.
=26	=26	=26	=26
8D#\ 8F#\L	4a#^/	8B\L	.
8D#\ 8F#\	.	8B\	.
8BB\ 8F#\	[2.g#/	8d#\	<
8BB\ 8F#\	.	8d#\	.
8BB\ 8G#\	.	8e#\	.
8BB\ 8F#\J	.	8d#\J	.
8BB\ 8G#\L	.	8e#\L	>
8BB\ 8F#\	.	8d#\	.
8BB\ 8G#\	8g#/L]	8e#\	.
8BB\ 8F#\	8a#/	8d#\	<
8AA#\ 8F#\	8cc#/	8c#\	.
8C#\ 8F#\J	8a#/J)	8c#\J	.
*	*v	*v	*
=27	=27	=27
*	*^	*
*	*	*^	*
8D#\ 8F#\L	2.ryy	(4f#/	8A#\L	<
8D#\ 8F#\	.	.	8A#\	.
8D#\ 8A#\	.	4f#/	8d#\	.
8D#\ 8A#\	.	.	8d#\	.
8GG#\ 8D#\ 8G#\	.	4d#/ 4f#/	8B#\	.
8GG#\ 8D#\ 8G#\J	.	.	8B#\J	.
8C#\ 8G#\L	2g#/	4d#/ 4f#/	8Bn\L	>
8C#\ 8G#\	.	.	8B\	.
8C#\ 8G#\	.	4c#/ 4e#/	8B\	.
8C#\ 8G#\	.	.	8B\	.
8C#\ 8G#\	4ryy	4d#/ 4g#/	8B\	.
8C#\ 8G#\J	.	.	8B\J	.
*	*	*v	*v	*
*	*v	*v	*
=28	=28	=28
8C#/ 8G#/L	4B/ 4d#/ 4g#/	.
8FF#/ 8C#/	.	.
8FF#/ 8C#/	4A#/ 4c#/ 4a#/	.
8FF#/ 8C#/	.	.
8FF#/ 8C#/	4B/ 4d#/ 4g#/	.
8FF#/ 8E#/J	.	.
8FF#\ 8F#\L	2.A#/ 2.c#/ 2.a#/)	.
(8EE#\	.	.
8GG#\	.	.
8FF#\	.	.
8AA#\	.	.
8CC#\J	.	.
=29	=29	=29
8FFF#\L)	2.en/ 2.a#/	p
8E#\	.	.
8G#\	.	.
8F#\	.	.
8A#\	.	.
8C#\J	.	.
*	*^	*
8FF#\L	[2a#/	2.e\	<
8E#\	.	.	.
8G#\	.	.	.
8F#\	.	.	.
8A#\	8.a#/L]	.	.
8C#\J	.	.	.
.	16b/Jk	.	.
*	*v	*v	*
=30	=30	=30
8FF#\L	2.en/ 2.a#/ 2.cc#/	.
8E#\	.	.
8G#\	.	.
8F#\	.	.
8A#\	.	.
8C#\J	.	.
*	*^	*
8FF#\L	[2dd#/	2.e\ 2.a#\ 2.ff#\	.
8E#\	.	.	.
8G#\	.	.	.
8F#\	.	.	.
8A#\	8.dd#/L]	.	.
8C#\J	.	.	.
.	16cc#/Jk	.	.
*	*v	*v	*
=31	=31	=31
8BB\L	2.en\ 2.cc#\ 2.ff#\	>
8E#\	.	.
8G#\	.	.
8F#\	.	.
8A#\	.	.
8C#\J	.	.
8BB\L	2.d#/ 2.b/ 2.dd#/	.
8E#\	.	.
8G#\	.	.
8F#\	.	.
8B\	.	.
8BB\J	.	.
=32	=32	=32
8DD#/L	2.c#/ 2.f##/ 2.b/ 2.dd#/	.
8C##/	.	.
8En/	.	.
8D#/	.	.
8F##/	.	.
8AA#/J	.	.
*	*^	*
8GG#/L	[2b/	2.B\ 2.g#\	.
8C##/	.	.	.
8E/	.	.	.
8D#/	.	.	.
8G#/	8.b/L]	.	.
8GG#/J	.	.	.
.	16d#/Jk	.	.
=33	=33	=33	=33
8CC#/L	1.ee#	2.B\ 2.e#\ (2.g#\	.
8BB#/	.	.	.
8D#/	.	.	.
8C#/	.	.	.
8E#/	.	.	.
8GG#/J	.	.	.
8CC#/L	.	2B\ 2e#\ 2g#\	.
8BB#/	.	.	.
8D#/	.	.	.
8C#/	.	.	.
8E#/	.	4c#\ 4a#\	.
8GG#/J	.	.	.
=34	=34	=34	=34
8FF#/L	2.ff#/	2.A#\ 2.f#\)	.
8BB#/	.	.	.
8D#/	.	.	.
8C#/	.	.	.
8F#/	.	.	.
8FF#/J	.	.	.
8BBBn/L	(2.gg#/	2.d#\ 2.g#\ 2.b\	.
8C##/	.	.	.
8E#/	.	.	.
8D#/	.	.	.
8Bn/	.	.	.
8GG#/J	.	.	.
*	*v	*v	*
=35	=35	=35
*	*^	*
*	*	*^	*
8CC#/L	[2.ee#/	2.g#\	1.Bn 1.e#	.
8BB#/	.	.	.	.
8D#/	.	.	.	.
8C#/	.	.	.	.
8E#/	.	.	.	.
8GG#/J	.	.	.	.
*	*	*v	*v	*
8CC#/L	2ee#/_	2.a#\	.
8BB#/	.	.	.
8D#/	.	.	.
8C#/	.	.	.
8G#/	8.ee#/L]	.	.
8CC#/J	.	.	.
.	16ff#/Jk	.	.
*	*v	*v	*
=36	=36	=36
8FFF#/L	1.A# 1.f# 1.ff#)	.
8BB#/	.	.
8D#/	.	.
8C#/	.	.
8F#/	.	.
8CC#/J	.	.
8FF#/L	.	.
8BB#/	.	.
8D#/	.	.
8C#/	.	.
8F#/	.	.
8CC#/J	.	.
=37	=37	=37
*	*^	*
8FFF#/L	2.r	8r	.
8FF#/ 8D#/	.	8A#\L	<
8FF#/ 8D#/	.	8A#\	.
8FF#/ 8D#/	.	8A#\	.
8FF#/ 8D#/	.	8d#\	.
8FF#/ 8D#/J	.	8A#\J	>
8FF#/ 8D#/L	(2a#/	8A#\L	.
8FF#/ 8D#/	.	8c#\	.
8FF#/ 8D#/	.	8B\	.
8FF#/ 8C#/	.	8A#\	.
8FF#/ 8C#/	16g##/LL	8A#\	.
.	16a#/	.	.
8FF#/ 8C#/J	16cc#/	8A#\J	.
.	16b/JJ	.	.
*	*v	*v	*
=38	=38	=38
1.FF# 1.C#	1.A# 1.a#)	.
==	==	==
*-	*-	*-
!!!ENC: Craig Stuart Sapp
!!!END: 2005/01/20/
